svgs/sharp-light/square-envelope.svg

<svg xmlns="http://www.w3.org/2000/svg" viewBox="0 0 448 512"><!--! Font Awesome Pro 6.5.2 by @fontawesome - https://fontawesome.com License - https://fontawesome.com/license (Commercial License) Copyright 2024 Fonticons, Inc. --><path d="M416 64V448H32V64H416zM32 32H0V64 448v32H32 416h32V448 64 32H416 32zM352 160v28.9L224 255.5 96 188.9V160H352zm0 65V352H96V225l120.6 62.7 7.4 3.8 7.4-3.8L352 225zM96 128H64v32V352v32H96 352h32V352 160 128H352 96z"/></svg>

<svg xmlns="http://www.w3.org/2000/svg" viewBox="0 0 448 512"><!--! Font Awesome Pro 6.6.0 by @fontawesome - https://fontawesome.com License - https://fontawesome.com/license (Commercial License) Copyright 2024 Fonticons, Inc. --><path d="M416 64l0 384L32 448 32 64l384 0zM32 32L0 32 0 64 0 448l0 32 32 0 384 0 32 0 0-32 0-384 0-32-32 0L32 32zM352 160l0 28.9L224 255.5 96 188.9 96 160l256 0zm0 65l0 127L96 352l0-127 120.6 62.7 7.4 3.8 7.4-3.8L352 225zM96 128l-32 0 0 32 0 192 0 32 32 0 256 0 32 0 0-32 0-192 0-32-32 0L96 128z"/></svg>
